src/assets/error.svg

<svg fill="none" height="15" viewBox="0 0 15 15" width="15" xmlns="http://www.w3.org/2000/svg"><rect fill="#ff3545" height="15" rx="7.5" width="15"/><path d="m8.15998 7.49997 2.70352-2.70342c.182-.182.182-.47741 0-.65987-.182-.18247-.4774-.18201-.6599 0l-2.70351 2.70342-2.70352-2.70342c-.182-.18201-.47741-.18201-.65989 0-.18247.182-.18201.4774 0 .65987l2.70351 2.70342-2.70351 2.70343c-.18201.182-.18201.4774 0 .6599.091.091.21001.1367.32995.1367s.23894-.0457.32994-.1367l2.70352-2.70346 2.70351 2.70346c.091.091.21.1367.3299.1367.12 0 .239-.0457.33-.1367.182-.182.182-.4774 0-.6599z" fill="#fff"/></svg>

<svg width="15" height="15" viewBox="0 0 15 15" fill="none" xmlns="http://www.w3.org/2000/svg">
    <rect width="15" height="15" rx="7.5" fill="#FF3545" />
    <path
        d="M8.15998 7.49997L10.8635 4.79655C11.0455 4.61455 11.0455 4.31914 10.8635 4.13668C10.6815 3.95421 10.3861 3.95467 10.2036 4.13668L7.50009 6.8401L4.79657 4.13668C4.61457 3.95467 4.31916 3.95467 4.13668 4.13668C3.95421 4.31868 3.95467 4.61408 4.13668 4.79655L6.84019 7.49997L4.13668 10.2034C3.95467 10.3854 3.95467 10.6808 4.13668 10.8633C4.22768 10.9543 4.34669 11 4.46663 11C4.58657 11 4.70557 10.9543 4.79657 10.8633L7.50009 8.15984L10.2036 10.8633C10.2946 10.9543 10.4136 11 10.5335 11C10.6535 11 10.7725 10.9543 10.8635 10.8633C11.0455 10.6813 11.0455 10.3859 10.8635 10.2034L8.15998 7.49997Z"
        fill="white" />
</svg>
